assets/Whale/Flat/whale_flat.svg

<svg width="32" height="32" viewBox="0 0 32 32" fill="none" xmlns="http://www.w3.org/2000/svg">
<path d="M24.0391 6.50785C27.0078 9.50004 29 12.9532 29 16.4688C29 22.8896 27.0502 26.86 22.3519 28.7834C21.7423 28.6957 21.1938 28.5899 20.7 28.4651L20.6875 29.047C20.5833 29.6095 20.2031 30.3994 19.0625 29.7501C18.2234 29.2723 16.9509 28.1995 16.7334 25.4686C16.2218 24.198 16.1162 22.5598 16 20.5001C15.8357 17.5891 12.9219 16.6095 11 16.5001C9.16066 16.3955 2.68432 16.0332 2.13144 16.0022C2.11443 15.6318 2.11085 15.261 2.12109 14.8907C2.12109 12.2307 5.48437 9.99005 7.83372 9.99005H14.3837C17.8437 9.99005 20.6537 12.8001 20.6537 16.2601C20.4844 18.672 24.0267 19.6662 24.4737 17.0401C24.9665 14.1449 23.8828 10.8753 22.0391 8.5471C21.8438 8.50002 21.7307 8.50039 21.5938 8.59377C20.3359 9.85159 19.4337 9.90584 17.7422 9.50784C17.6686 9.46055 17.5846 9.43217 17.5033 9.40471C17.2752 9.32763 17.0682 9.25769 17.1719 8.7969C17.3125 8.1719 18.2969 7.07815 18.2969 7.07815C19.0703 6.1719 20.0547 5.96877 20.5234 6.02346C20.9249 6.0703 21.0378 5.95464 21.1029 5.88787C21.1138 5.87667 21.1234 5.86685 21.1328 5.8594C21.1981 5.80752 21.2656 5.4219 21.2656 5.4219C21.1016 4.5469 21.3088 3.74389 21.8125 3.03909C21.8125 3.03909 22.6953 1.77349 23.5 1.69536C24.2193 1.62553 24.3028 2.06462 24.3786 2.46259C24.3875 2.50982 24.3964 2.55654 24.4062 2.6017C24.7401 4.13697 24.5763 4.50402 24.1912 5.36709C24.1256 5.51407 24.0536 5.67543 23.9766 5.8594C23.8479 6.16667 23.9186 6.29282 24.0145 6.46374C24.0225 6.47808 24.0308 6.49274 24.0391 6.50785Z" fill="#00A6ED"/>
<path d="M8.21875 29.9375C6.48438 29.9375 4.57812 27.5 5.10937 24.0156C5.42187 24.2156 7.72396 26.0677 8.85937 27.1562C9.1875 28 8.96875 29.9375 8.21875 29.9375Z" fill="#00A6ED"/>
<path d="M15.517 15.0001C15.1867 15.0001 14.9127 14.7261 14.9127 14.3958V13.6384C14.9127 13.3081 15.1867 13.0342 15.517 13.0342C15.8473 13.0342 16.1213 13.3081 16.1213 13.6384V14.3958C16.1213 14.7342 15.8473 15.0001 15.517 15.0001Z" fill="#1C1C1C"/>
<path d="M20.7055 28.2075C21.204 28.3938 21.7654 28.5777 22.398 28.7644C21.8378 28.9962 21.2383 29.1987 20.5981 29.3725C20.6394 29.2632 20.6682 29.1512 20.6875 29.047L20.7055 28.2075Z" fill="#AEDDFF"/>
<path d="M16.7329 23.7396C16.626 22.9685 16.5756 22.0687 16.5157 20.9994L16.5 20.7188C16.3357 17.8077 12.7344 16.1094 10.8125 16C8.97415 15.8954 2.67537 15.9909 2.13131 15.9994C2.4697 23.3988 8.16521 30.6385 16.0164 30.0947C17.0934 30.0201 18.0947 29.8982 19.0234 29.7276C18.0237 29.1453 16.4592 27.7214 16.7329 23.7396Z" fill="#AEDDFF"/>
</svg>

<svg xmlns="http://www.w3.org/2000/svg" width="32" height="32" fill="none"><path fill="#00A6ED" d="M24.04 6.508C27.007 9.5 29 12.953 29 16.468c0 6.422-1.95 10.392-6.648 12.315a16.144 16.144 0 0 1-1.652-.318l-.012.582c-.105.563-.485 1.352-1.625.703-.84-.478-2.112-1.55-2.33-4.281-.511-1.271-.617-2.91-.733-4.969-.164-2.91-3.078-3.89-5-4-1.84-.105-8.316-.467-8.869-.498a15.12 15.12 0 0 1-.01-1.111c0-2.66 3.363-4.9 5.713-4.9h6.55c3.46 0 6.27 2.81 6.27 6.27-.17 2.411 3.373 3.405 3.82.78.492-2.896-.591-6.166-2.435-8.494-.195-.047-.308-.047-.445.047-1.258 1.258-2.16 1.312-3.852.914a1.066 1.066 0 0 0-.239-.103c-.228-.077-.435-.147-.331-.608.14-.625 1.125-1.719 1.125-1.719.773-.906 1.758-1.11 2.226-1.055.402.047.515-.068.58-.135a.337.337 0 0 1 .03-.029c.065-.051.133-.437.133-.437-.164-.875.043-1.678.547-2.383 0 0 .882-1.266 1.687-1.344.72-.07.803.37.879.768.008.047.017.094.027.139.334 1.535.17 1.902-.215 2.765-.065.147-.137.308-.214.492-.13.308-.058.434.038.605l.024.044ZM8.219 29.938c-1.735 0-3.64-2.438-3.11-5.922.313.2 2.615 2.052 3.75 3.14.329.844.11 2.782-.64 2.782Z"/><path fill="#1C1C1C" d="M15.517 15a.609.609 0 0 1-.604-.604v-.758c0-.33.274-.604.604-.604.33 0 .604.274.604.604v.758a.604.604 0 0 1-.604.604Z"/><path fill="#AEDDFF" d="M20.706 28.207c.498.187 1.06.37 1.692.557-.56.232-1.16.435-1.8.608.041-.109.07-.22.09-.325l.018-.84ZM16.733 23.74c-.107-.771-.157-1.671-.217-2.74l-.016-.281c-.164-2.911-3.766-4.61-5.688-4.719-1.838-.105-8.137-.01-8.68 0 .338 7.399 6.033 14.639 13.884 14.095a26.998 26.998 0 0 0 3.007-.367c-1-.583-2.564-2.007-2.29-5.988Z"/></svg>
